Suru++-Ubuntu/apps/scalable/gtranslator.svg

<svg width="256" height="256" version="1.1" viewBox="0 0 256 256" xmlns="http://www.w3.org/2000/svg" xmlns:xlink="http://www.w3.org/1999/xlink">
 <defs>
  <linearGradient id="linearGradient1108" x1="296" x2="296" y1="-212" y2="236" gradientUnits="userSpaceOnUse">
   <stop style="stop-color:#ffffff" offset="0"/>
   <stop style="stop-color:#ffffff;stop-opacity:.09803922" offset=".125"/>
   <stop style="stop-color:#000000;stop-opacity:.09803922" offset=".925"/>
   <stop style="stop-color:#000000;stop-opacity:.49803922" offset="1"/>
  </linearGradient>
  <clipPath id="clipPath1082-3-361">
   <path d="M 361.9375,-212 C 507.2348,-212 528,-191.28677 528,-46.125 V 70.125 C 528,215.28618 507.2348,236 361.9375,236 H 214.0625 C 68.7652,236 48,215.28618 48,70.125 V -46.125 C 48,-191.28677 68.7652,-212 214.0625,-212 Z" style="fill:#8c59d9"/>
  </clipPath>
  <linearGradient id="linearGradient1044" x1="88" x2="256" y1="28" y2="284" gradientTransform="matrix(1.0193681,0,0,1.0193681,-26.943943,-32.512319)" gradientUnits="userSpaceOnUse">
   <stop style="stop-color:#e8e8e8" offset="0"/>
   <stop style="stop-color:#f5f5f5" offset="1"/>
  </linearGradient>
  <filter id="filter4569" x="-.01" y="-.01" width="1.023" height="1.025" style="color-interpolation-filters:sRGB">
   <feGaussianBlur stdDeviation="1.16"/>
  </filter>
  <filter id="filter939" x="-.02" y="-.03" width="1.046" height="1.05" style="color-interpolation-filters:sRGB">
   <feGaussianBlur stdDeviation="2.32"/>
  </filter>
  <linearGradient id="SVGID_2_" x1="246.3" x2="529.699" y1="270" y2="264.892" gradientTransform="matrix(.54347825 0 0 .54347825 -12.496702 -21.372936)" gradientUnits="userSpaceOnUse">
   <stop style="stop-color:#FFFFFF" offset="0"/>
   <stop style="stop-color:#F7F7F7" offset=".187"/>
   <stop style="stop-color:#EBEBEB" offset=".591"/>
   <stop style="stop-color:#E7E7E7" offset="1"/>
  </linearGradient>
  <linearGradient id="SVGID_3_" x1=".462" x2="284.9" y1="239.73" y2="242" gradientTransform="matrix(.54347825 0 0 .54347825 -12.496702 -21.372936)" gradientUnits="userSpaceOnUse">
   <stop style="stop-color:#00A6E4" offset="0"/>
   <stop style="stop-color:#00ADE7" offset=".13"/>
   <stop style="stop-color:#00B8EB" offset=".345"/>
   <stop style="stop-color:#3FC1EE" offset=".562"/>
   <stop style="stop-color:#53C8F0" offset=".78"/>
   <stop style="stop-color:#58CAF1" offset="1"/>
  </linearGradient>
 </defs>
 <path transform="matrix(1.019368,0,0,1.019368,-7.2181772e-8,8.3098661)" d="m162.53675 5.5680001c72.64865 0 83.03125 10.356615 83.03125 82.937505v58.125005c0 72.58059-10.3826 82.9375-83.03125 82.9375h-73.937496c-72.648654 0-83.031254-10.35691-83.031254-82.9375v-58.125005c0-72.58089 10.3826-82.937505 83.031254-82.937505z" style="filter:url(#filter939);opacity:.2"/>
 <path d="m165.68477 11.946967c74.05571 0 84.6394 10.557203 84.6394 84.543835v59.250778c0 73.98633-10.58369 84.54383-84.6394 84.54383h-75.369521c-74.055717 0-84.639408-10.5575-84.639408-84.54383v-59.250778c0-73.986632 10.583691-84.543835 84.639408-84.543835z" style="fill:none;opacity:.1;stroke-linecap:round;stroke-linejoin:round;stroke-width:4.0774717;stroke:#000000"/>
 <path transform="matrix(1.019368,0,0,1.019368,-7.2181772e-8,8.3098661)" d="m162.53675 3.5680001c72.64865 0 83.03125 10.356615 83.03125 82.937505v58.125005c0 72.58059-10.3826 82.9375-83.03125 82.9375h-73.937496c-72.648654 0-83.031254-10.35691-83.031254-82.9375v-58.125005c0-72.58089 10.3826-82.937505 83.031254-82.937505z" style="filter:url(#filter4569);opacity:.1"/>
 <path d="m165.68476 12.339827c74.05571 0 84.6394 10.557203 84.6394 84.543835v59.250778c0 73.98633-10.58369 84.54383-84.6394 84.54383h-75.369524c-74.055712 0-84.639403-10.5575-84.639403-84.54383v-59.250778c0-73.986632 10.583691-84.543835 84.639403-84.543835z" style="fill:url(#linearGradient1044)"/>
 <g transform="matrix(3.7795275,0,0,3.7795275,4.2581662,-861.22503)">
  <g transform="matrix(.14379529 0 0 .14379529 -4.433059 222.21087)">
   <path transform="matrix(1.84,0,0,1.84,22.993932,39.326203)" d="m249.95312 171.5625c0.15187-4.99806 0.3711-9.69185 0.3711-15.42773v-59.251958c0-6.58552-0.22274-12.09515-0.42774-17.71289h-121.19726l13.58594 76.957028v0.27149h-20.92383l2.60937 14.83789 0.05469 0.32617h125.92773z" style="fill:url(#SVGID_2_)"/>
   <polygon points="246.3 327 284.8 327 251.3 355" style="fill:#056b9a"/>
   <path transform="matrix(1.84,0,0,1.84,22.993932,39.326203)" d="m6.9902344 63.425781c-0.2778017 2.745511-0.535766 5.541512-0.7148438 8.582031-0.4340378 7.369426-0.5996094 15.626672-0.5996094 24.875v59.191408l136.66406 0.26953v-0.27148l-16.25-92.119145-119.09961-0.527344z" style="fill:url(#SVGID_3_)"/>
   <path d="m333.8 243.8h32.7v41.2h-6v-5.2h-26.7v29.2h-6.1v-29.1h-26.3v5.6h-5.9v-41.6h32.2v-16l7.9 0.5c-0.1 0.6-0.6 1-1.8 1.2zm-32.5 30.2h26.3v-24.4h-26.3zm32.5 0h26.7v-24.4h-26.7z" style="fill:#41b8ea"/>
   <path d="m208.7 270h-5.2v-46.5c0-4.4-1.4-6.5-4.2-6.5-1.7 0-3.2 1.3-4.5 3.8l-18.5 49.2h-5.5v-40c-1.3 0.7-2.7 1-4.4 1-2.6 0-4.9-0.9-6.8-2.8s-2.8-4.1-2.8-6.8c0-2.6 0.9-4.9 2.8-6.8s4.1-2.8 6.8-2.8c2.6 0 4.9 0.9 6.8 2.8s2.8 4.1 2.8 6.8v28.6c-0.2 4.5-0.4 7.7-0.7 9.6 0.6-1.9 1.5-4.6 2.6-8.1l11.8-31.4c2-5.4 5.4-8.1 10-8.1 6 0 9 3.9 9 11.6zm-37.4-48.6c0-1.3-0.5-2.5-1.4-3.4-1-1-2.1-1.4-3.4-1.4s-2.5 0.5-3.4 1.4c-1 1-1.4 2.1-1.4 3.4s0.5 2.5 1.4 3.4c1 1 2.1 1.4 3.4 1.4s2.5-0.5 3.4-1.4c1-0.9 1.4-2 1.4-3.4z" style="fill:#ffffff"/>
  </g>
 </g>
 <path transform="matrix(.50968403 0 0 .50968403 -18.788999 120)" d="M 361.9375,-212 C 507.2348,-212 528,-191.28677 528,-46.125 V 70.125 C 528,215.28618 507.2348,236 361.9375,236 H 214.0625 C 68.7652,236 48,215.28618 48,70.125 V -46.125 C 48,-191.28677 68.7652,-212 214.0625,-212 Z" clip-path="url(#clipPath1082-3-361)" style="fill:none;opacity:.4;stroke-linecap:round;stroke-linejoin:round;stroke-width:8;stroke:url(#linearGradient1108)"/>
</svg>

<svg xmlns="http://www.w3.org/2000/svg" xmlns:xlink="http://www.w3.org/1999/xlink" width="256" height="256" version="1.1" viewBox="0 0 256 256">
 <defs>
  <linearGradient id="linearGradient1108" x1="296" x2="296" y1="-212" y2="236" gradientUnits="userSpaceOnUse" xlink:href="#linearGradient1013"/>
  <linearGradient id="linearGradient1013">
   <stop style="stop-color:#ffffff" offset="0"/>
   <stop offset=".125" style="stop-color:#ffffff;stop-opacity:0.09803922"/>
   <stop offset=".925" style="stop-color:#000000;stop-opacity:0.09803922"/>
   <stop style="stop-color:#000000;stop-opacity:0.49803922" offset="1"/>
  </linearGradient>
  <clipPath id="clipPath1082-3-361" clipPathUnits="userSpaceOnUse">
   <path style="fill:#8c59d9" d="M 361.9375,-212 C 507.2348,-212 528,-191.28677 528,-46.125 V 70.125 C 528,215.28618 507.2348,236 361.9375,236 H 214.0625 C 68.7652,236 48,215.28618 48,70.125 V -46.125 C 48,-191.28677 68.7652,-212 214.0625,-212 Z"/>
  </clipPath>
  <linearGradient id="linearGradient1044" x1="88" x2="256" y1="28" y2="284" gradientTransform="matrix(1.0193681,0,0,1.0193681,-26.943943,-32.512319)" gradientUnits="userSpaceOnUse" xlink:href="#linearGradient4245"/>
  <linearGradient id="linearGradient4245">
   <stop style="stop-color:#e8e8e8" offset="0"/>
   <stop style="stop-color:#f5f5f5" offset="1"/>
  </linearGradient>
  <filter id="filter4569" width="1.023" height="1.025" x="-.01" y="-.01" style="color-interpolation-filters:sRGB">
   <feGaussianBlur stdDeviation="1.16"/>
  </filter>
  <filter id="filter939" width="1.046" height="1.05" x="-.02" y="-.03" style="color-interpolation-filters:sRGB">
   <feGaussianBlur stdDeviation="2.32"/>
  </filter>
  <linearGradient id="SVGID_2_" x1="246.3" x2="529.699" y1="270" y2="264.892" gradientTransform="matrix(0.54347825,0,0,0.54347825,-12.496702,-21.372936)" gradientUnits="userSpaceOnUse">
   <stop style="stop-color:#FFFFFF" offset="0"/>
   <stop style="stop-color:#F7F7F7" offset=".187"/>
   <stop style="stop-color:#EBEBEB" offset=".591"/>
   <stop style="stop-color:#E7E7E7" offset="1"/>
  </linearGradient>
  <linearGradient id="SVGID_3_" x1=".462" x2="284.9" y1="239.73" y2="242" gradientTransform="matrix(0.54347825,0,0,0.54347825,-12.496702,-21.372936)" gradientUnits="userSpaceOnUse">
   <stop style="stop-color:#00A6E4" offset="0"/>
   <stop style="stop-color:#00ADE7" offset=".13"/>
   <stop style="stop-color:#00B8EB" offset=".345"/>
   <stop style="stop-color:#3FC1EE" offset=".562"/>
   <stop style="stop-color:#53C8F0" offset=".78"/>
   <stop style="stop-color:#58CAF1" offset="1"/>
  </linearGradient>
 </defs>
 <path d="m 162.53675,5.5680001 c 72.64865,0 83.03125,10.3566149 83.03125,82.9375049 v 58.125005 c 0,72.58059 -10.3826,82.9375 -83.03125,82.9375 H 88.599254 C 15.9506,229.56801 5.568,219.2111 5.568,146.63051 V 88.505505 c 0,-72.58089 10.3826,-82.9375049 83.031254,-82.9375049 z" transform="matrix(1.019368,0,0,1.019368,-7.2181772e-8,8.3098661)" style="opacity:0.2;filter:url(#filter939)"/>
 <path style="opacity:0.1;fill:none;stroke:#000000;stroke-width:4.07747173;stroke-linecap:round;stroke-linejoin:round" d="m 165.68477,11.946967 c 74.05571,0 84.6394,10.557203 84.6394,84.543835 v 59.250778 c 0,73.98633 -10.58369,84.54383 -84.6394,84.54383 H 90.315249 c -74.055717,0 -84.6394076,-10.5575 -84.6394076,-84.54383 V 96.490802 c 0,-73.986632 10.5836906,-84.543835 84.6394076,-84.543835 z"/>
 <path style="opacity:0.1;filter:url(#filter4569)" d="m 162.53675,3.5680001 c 72.64865,0 83.03125,10.3566149 83.03125,82.9375049 v 58.125005 c 0,72.58059 -10.3826,82.9375 -83.03125,82.9375 H 88.599254 C 15.9506,227.56801 5.568,217.2111 5.568,144.63051 V 86.505505 c 0,-72.58089 10.3826,-82.9375049 83.031254,-82.9375049 z" transform="matrix(1.019368,0,0,1.019368,-7.2181772e-8,8.3098661)"/>
 <path d="m 165.68476,12.339827 c 74.05571,0 84.6394,10.557203 84.6394,84.543835 v 59.250778 c 0,73.98633 -10.58369,84.54383 -84.6394,84.54383 H 90.315236 c -74.055712,0 -84.6394029,-10.5575 -84.6394029,-84.54383 V 96.883662 c 0,-73.986632 10.5836909,-84.543835 84.6394029,-84.543835 z" style="fill:url(#linearGradient1044)"/>
 <g>
  <g transform="matrix(3.7795275,0,0,3.7795275,4.2581662,-861.22503)">
   <g transform="matrix(0.14379529,0,0,0.14379529,-4.433059,222.21087)">
    <g>
     <path d="M 249.95312 171.5625 C 250.10499 166.56444 250.32422 161.87065 250.32422 156.13477 L 250.32422 96.882812 C 250.32422 90.297292 250.10148 84.787662 249.89648 79.169922 L 128.69922 79.169922 L 142.28516 156.12695 L 142.28516 156.39844 L 121.36133 156.39844 L 123.9707 171.23633 L 124.02539 171.5625 L 249.95312 171.5625 z" transform="matrix(1.84,0,0,1.84,22.993932,39.326203)" style="fill:url(#SVGID_2_)"/>
     <polygon style="fill:#056b9a" points="246.3 327 284.8 327 251.3 355"/>
     <path d="M 6.9902344 63.425781 C 6.7124327 66.171292 6.4544684 68.967293 6.2753906 72.007812 C 5.8413528 79.377238 5.6757812 87.634484 5.6757812 96.882812 L 5.6757812 156.07422 L 142.33984 156.34375 L 142.33984 156.07227 L 126.08984 63.953125 L 6.9902344 63.425781 z" transform="matrix(1.84,0,0,1.84,22.993932,39.326203)" style="fill:url(#SVGID_3_)"/>
    </g>
    <path style="fill:#41b8ea" d="m 333.8,243.8 h 32.7 V 285 h -6 v -5.2 H 333.8 V 309 h -6.1 v -29.1 h -26.3 v 5.6 h -5.9 v -41.6 h 32.2 v -16 l 7.9,0.5 c -0.1,0.6 -0.6,1 -1.8,1.2 z M 301.3,274 h 26.3 v -24.4 h -26.3 z m 32.5,0 h 26.7 v -24.4 h -26.7 z"/>
    <path style="fill:#ffffff" d="m 208.7,270 h -5.2 v -46.5 c 0,-4.4 -1.4,-6.5 -4.2,-6.5 -1.7,0 -3.2,1.3 -4.5,3.8 L 176.3,270 h -5.5 v -40 c -1.3,0.7 -2.7,1 -4.4,1 -2.6,0 -4.9,-0.9 -6.8,-2.8 -1.9,-1.9 -2.8,-4.1 -2.8,-6.8 0,-2.6 0.9,-4.9 2.8,-6.8 1.9,-1.9 4.1,-2.8 6.8,-2.8 2.6,0 4.9,0.9 6.8,2.8 1.9,1.9 2.8,4.1 2.8,6.8 V 250 c -0.2,4.5 -0.4,7.7 -0.7,9.6 0.6,-1.9 1.5,-4.6 2.6,-8.1 l 11.8,-31.4 c 2,-5.4 5.4,-8.1 10,-8.1 6,0 9,3.9 9,11.6 z m -37.4,-48.6 c 0,-1.3 -0.5,-2.5 -1.4,-3.4 -1,-1 -2.1,-1.4 -3.4,-1.4 -1.3,0 -2.5,0.5 -3.4,1.4 -1,1 -1.4,2.1 -1.4,3.4 0,1.3 0.5,2.5 1.4,3.4 1,1 2.1,1.4 3.4,1.4 1.3,0 2.5,-0.5 3.4,-1.4 1,-0.9 1.4,-2 1.4,-3.4 z"/>
   </g>
  </g>
 </g>
 <path style="opacity:0.4;fill:none;stroke:url(#linearGradient1108);stroke-width:8;stroke-linecap:round;stroke-linejoin:round" d="M 361.9375,-212 C 507.2348,-212 528,-191.28677 528,-46.125 V 70.125 C 528,215.28618 507.2348,236 361.9375,236 H 214.0625 C 68.7652,236 48,215.28618 48,70.125 V -46.125 C 48,-191.28677 68.7652,-212 214.0625,-212 Z" clip-path="url(#clipPath1082-3-361)" transform="matrix(0.50968403,0,0,0.50968403,-18.788999,120)"/>
</svg>
